X:1
T:Title
%%score 1 2 3
L:1/8
M:3/2
K:C
V:1 treble nm="Part_1"
V:2 treble-8 nm="Part_2"
V:3 treble-8 nm="Part_3"
V:1
 C8 D4 | D4 F2 G2 A4- | A2 G2 A2 B2 G3 F | A4 z4 A4 | A4 G6 F2 | F4 G4 G4 | A2 B2 c2 d2 B2 A2 | %7
 c2 B3 A A2 G3 F | A4 z4 A2 G2 | F6 E2 G4 | G4 F4 z4 | D4 G4 G4 | F4 D4 E2 F2 | G2 A4 F3 D E2 | %14
 F4 z4 F4 | G6 A2 G2 G2 | A4 B2 c4 A2 | c2 B2 AG G3 ^FFE | G4 z4 F4 | A6 G2 A2 B2 | %20
 c2 B2 G2 c4 B2 | c8 B4 | A4 B6 A2 | A6 G2 G2 F2 | A8 G4 | F4 G6 F2 | F6 E2 E2 D2 | F4 z4 F2 E2 | %28
 G4 G4 A2 B2 | c6 B2 A4 | G2 FG A2 F4 E2 | G8 z4 | F4 G4 E2 D2 | G2 A2 A6 G2 | F4 E4 F2 G2 | %35
 A2 G4 F2 D2 E2 | F4 z4 F4 | G4 G4 A2 B2 | c6 B2 A4 | G2 A4 G4 F2 | G4 z4 F4 | G6 F2 E2 D2 | %42
 F2 G2 A4 G2 _B2- | B2 A2 G2 F2 E2 D2- | D2 F2 E2 G4 F2 | D2 E3 D D2 ^C3 B, |[M:4/2] D16 |] %47
V:2
 F4 A8 | B4 c2 d2 e4- | e2 d2 e2 f2 d4 | e8 f4 | e4 d8 | c4 d4 e4 | z4 c2 G4 F2 | f2 g2 f2 e2 d4 | %8
 e8 z2 d2 | c4 c2 B2 d4 | ^c4 d6 A2 | B4 c2 d2 e4 | c4 z2 G2 c4 | d2 e4 d2 =B2 A2 | c8 c4 | %15
 d4 z2 e2 d4 | e8 z4 | g2 e2 z2 d2 c4 | d8 z4 | e6 d2 e2 f2 | g8 f4 | g4 z4 e4 | f4 d4 e4 | %23
 d4 ^c6 B2 | d4 A4 d4 | c4 z4 d2 c2 | c4 B6 A2 | c8 c4 | d8 f4 | e4 g2 f2 e4 | d4 ^c6 B2 | %31
 d4 z4 d4 | c4 d4 B3 A | c8 c4 | d4 G4 z4 | c2 B2 G2 c2 B4 | c12 | d8 e2 f2 | g6 f2 e4 | %39
 d2 A4 d2 c2 B2 | d4 z4 d4 | e4 d4 =B4 | c4 A4 z2 G2- | G2 c2 d4 A2 G2- | G2 z2 c2 d2 B2 d2 | %45
 c2 B4 A4 G2 |[M:4/2] A16 |] %47
V:3
 F8 D4 | G4 A2 B2 A4 | c2 B2 c2 d2 B4 | A8 d4 | c4 B8 | A4 G4 c4- | c2 d2 e2 d6- | d2 e2 d2 c2 B4 | %8
 A8 c2 B2 | A8 G4 | E4 D8 | G8 E4 | A4 B4 A4 | G2 c4 A2 G4 | F8 A4 | B4 c4 B4 | A8 c2 d2 | %17
 c4 B2 G2 A4 | G8 d4 | c4 A2 B2 c2 d2 | c4 e4 d4 | c8 G4 | F4 G8 | F4 E8 | D4 F4 G4 | %25
 A4 G2 _B4 A2 | A4 G8 | F8 A4 | G8 d4 | c8 c4 | B4 A8 | G8 _B4 | A4 B4 G4 | F8 E4 | D4 C4 D2 E2 | %35
 F2 G2 _B2 A2 G4 | F8 A4 | _B2 G4 B2 c2 d2 | c2 e4 d2 c4 | B2 c4 B2 A4 | G8 D4 | C4 G8 | %42
 F4 c6 d2- | d2 A2 B4 c2 d2 | B2 A4 G4 D2 | G4 F4 E4 |[M:4/2] D16 |] %47

